flaticon/transport/ship.svg

<svg xmlns="http://www.w3.org/2000/svg" width="32" height="32" viewBox="0 0 24 24">
    <path d="M21.96875 14.4375L19.125 14.4375 19.125 12.8125C19.125 11.878906 18.355469 11.1875 17.339844 11.1875L16.285156 11.1875 16.285156 8.101562C16.285156 7.574219 15.835938 7.128906 15.308594 7.128906L14.011719 7.128906C13.480469 7.128906 13.035156 7.574219 13.035156 8.101562L13.035156 11.1875 11.410156 11.1875 11.410156 8.101562C11.410156 7.574219 10.964844 7.128906 10.4375 7.128906L9.136719 7.128906C8.609375 7.128906 8.164062 7.574219 8.164062 8.101562L8.164062 11.1875 7.105469 11.1875C6.050781 11.1875 5.320312 11.878906 5.320312 12.8125L5.320312 14.4375 0 14.4375.0390625 14.882812C.0390625 14.964844.8125 21.339844 5.726562 21.339844L19.574219 21.339844 19.53125 20.894531C19.53125 20.894531 19.453125 19.878906 20.0625 19.1875 20.46875 18.742188 21.117188 18.5 21.96875 18.5 23.105469 18.5 24 17.605469 24 16.46875 24 15.332031 23.105469 14.4375 21.96875 14.4375zM13.847656 8.101562C13.847656 8.019531 13.929688 7.941406 14.011719 7.941406L15.308594 7.941406C15.390625 7.941406 15.472656 8.019531 15.472656 8.101562L15.472656 11.1875 13.847656 11.1875zM8.976562 8.101562C8.976562 8.019531 9.054688 7.941406 9.136719 7.941406L10.4375 7.941406C10.519531 7.941406 10.597656 8.019531 10.597656 8.101562L10.597656 11.1875 8.976562 11.1875zM6.132812 12.8125C6.132812 12.246094 6.621094 12 7.105469 12L17.339844 12C17.828125 12 18.316406 12.246094 18.316406 12.8125L18.316406 14.4375 6.132812 14.4375zM21.96875 17.6875C20.875 17.6875 20.019531 18.011719 19.453125 18.660156 18.882812 19.269531 18.761719 20.042969 18.722656 20.527344L5.726562 20.527344C4.574219 20.527344 3.601562 20.121094 2.8125 19.3125L16.285156 19.3125C16.527344 19.3125 16.691406 19.148438 16.691406 18.90625 16.691406 18.660156 16.527344 18.5 16.285156 18.5L2.175781 18.5C2.023438 18.261719 1.878906 18.003906 1.746094 17.726562 1.671875 17.578125 1.601562 17.425781 1.539062 17.28125L14.660156 17.28125C14.902344 17.28125 15.066406 17.117188 15.066406 16.875 15.066406 16.628906 14.902344 16.46875 14.660156 16.46875L1.257812 16.46875C1.253906 16.46875 1.25 16.46875 1.242188 16.46875 1.09375 15.988281 1 15.5625.933594 15.25L21.96875 15.25C22.660156 15.25 23.1875 15.777344 23.1875 16.46875 23.1875 17.160156 22.660156 17.6875 21.96875 17.6875zM9.582031 4.652344C9.589844 4.652344 9.59375 4.65625 9.601562 4.65625 9.753906 4.796875 9.785156 4.898438 9.785156 4.933594 9.785156 4.976562 9.746094 5.058594 9.582031 5.136719 9.378906 5.261719 9.339844 5.503906 9.421875 5.707031 9.503906 5.828125 9.664062 5.910156 9.785156 5.910156 9.867188 5.910156 9.949219 5.910156 9.988281 5.867188 10.476562 5.542969 10.597656 5.21875 10.597656 4.976562 10.597656 4.742188 10.523438 4.363281 10.097656 4.015625 10.070312 3.976562 10.035156 3.945312 9.988281 3.917969 9.828125 3.839844 9.785156 3.757812 9.785156 3.714844 9.785156 3.675781 9.828125 3.554688 10.03125 3.390625 10.234375 3.269531 10.234375 2.984375 10.113281 2.824219 9.988281 2.621094 9.707031 2.621094 9.542969 2.742188 9.054688 3.148438 8.976562 3.554688 8.976562 3.796875 8.976562 4.042969 9.097656 4.367188 9.582031 4.652344zM14.457031 4.652344C14.460938 4.652344 14.46875 4.65625 14.472656 4.65625 14.625 4.796875 14.660156 4.898438 14.660156 4.933594 14.660156 4.976562 14.621094 5.058594 14.457031 5.136719 14.253906 5.261719 14.171875 5.503906 14.292969 5.707031 14.375 5.828125 14.539062 5.910156 14.660156 5.910156 14.742188 5.910156 14.78125 5.910156 14.863281 5.867188 15.351562 5.542969 15.472656 5.21875 15.472656 4.976562 15.472656 4.742188 15.398438 4.367188 14.972656 4.015625 14.941406 3.980469 14.90625 3.945312 14.863281 3.917969 14.699219 3.839844 14.660156 3.757812 14.660156 3.714844 14.660156 3.675781 14.699219 3.554688 14.902344 3.390625 15.105469 3.269531 15.105469 2.984375 14.984375 2.824219 14.863281 2.621094 14.578125 2.621094 14.417969 2.742188 13.929688 3.148438 13.847656 3.554688 13.847656 3.796875 13.847656 4.042969 13.96875 4.367188 14.457031 4.652344zM14.457031 4.652344"/>
    <path d="M10.191406 12.8125C9.988281 12.8125 9.785156 12.976562 9.785156 13.21875 9.785156 13.421875 9.949219 13.625 10.191406 13.625 10.394531 13.625 10.597656 13.460938 10.597656 13.21875 10.597656 13.015625 10.394531 12.8125 10.191406 12.8125zM12.222656 12.8125C12.019531 12.8125 11.816406 12.976562 11.816406 13.21875 11.816406 13.421875 11.980469 13.625 12.222656 13.625 12.425781 13.625 12.628906 13.460938 12.628906 13.21875 12.628906 13.015625 12.425781 12.8125 12.222656 12.8125zM14.253906 12.8125C14.050781 12.8125 13.847656 12.976562 13.847656 13.21875 13.847656 13.421875 14.011719 13.625 14.253906 13.625 14.457031 13.625 14.660156 13.460938 14.660156 13.21875 14.660156 13.015625 14.457031 12.8125 14.253906 12.8125zM14.253906 12.8125"/>
</svg>

<svg xmlns="http://www.w3.org/2000/svg" width="32" height="32" viewBox="0 0 24 24">
    <path d="M21.969 14.438h-2.844v-1.626c0-.933-.77-1.624-1.785-1.624h-1.055V8.101a.989.989 0 0 0-.976-.973h-1.297a.986.986 0 0 0-.977.973v3.085H11.41V8.102a.986.986 0 0 0-.973-.973h-1.3a.986.986 0 0 0-.973.973v3.085H7.105c-1.054 0-1.785.692-1.785 1.626v1.624H0l.04.446c0 .082.772 6.457 5.687 6.457h13.847l-.043-.445s-.078-1.016.532-1.707c.406-.446 1.054-.688 1.906-.688A2.012 2.012 0 0 0 24 16.469a2.012 2.012 0 0 0-2.031-2.032zm-8.121-6.336c0-.082.082-.16.164-.16h1.297c.082 0 .164.078.164.16v3.085h-1.625zm-4.871 0a.17.17 0 0 1 .16-.16h1.3a.17.17 0 0 1 .16.16v3.085h-1.62zm-2.844 4.71c0-.566.488-.812.972-.812H17.34c.488 0 .976.246.976.813v1.624H6.133zm15.836 4.876c-1.094 0-1.95.324-2.516.972-.57.61-.691 1.383-.73 1.867H5.727c-1.153 0-2.125-.406-2.915-1.215h13.473a.385.385 0 0 0 .406-.406c0-.246-.164-.406-.406-.406H2.175a7.243 7.243 0 0 1-.429-.773 8.952 8.952 0 0 1-.207-.446H14.66a.385.385 0 0 0 .406-.406c0-.246-.164-.406-.406-.406H1.242c-.148-.48-.242-.907-.308-1.219h21.035c.691 0 1.218.527 1.218 1.219 0 .691-.527 1.218-1.218 1.218zm0 0M9.582 4.652c.008 0 .012.004.02.004.152.14.183.242.183.278 0 .043-.039.125-.203.203-.203.125-.242.367-.16.57a.485.485 0 0 0 .363.203c.082 0 .164 0 .203-.043.489-.324.61-.648.61-.89 0-.235-.075-.614-.5-.961a.333.333 0 0 0-.11-.098c-.16-.078-.203-.16-.203-.203 0-.04.043-.16.246-.324.203-.121.203-.407.082-.567-.125-.203-.406-.203-.57-.082-.488.406-.566.813-.566 1.055 0 .246.12.57.605.855zm0 0M14.457 4.652l.016.004c.152.14.187.242.187.278 0 .043-.039.125-.203.203-.203.125-.285.367-.164.57a.493.493 0 0 0 .367.203c.082 0 .121 0 .203-.043.489-.324.61-.648.61-.89 0-.235-.075-.61-.5-.961a.528.528 0 0 0-.11-.098c-.164-.078-.203-.16-.203-.203 0-.04.04-.16.242-.324.203-.121.203-.407.082-.567-.12-.203-.406-.203-.566-.082-.488.406-.57.813-.57 1.055 0 .246.12.57.609.855zm0 0"/>
    <path d="M10.191 12.813a.408.408 0 0 0-.406.406c0 .203.164.406.406.406a.408.408 0 0 0 .407-.406.437.437 0 0 0-.407-.406zm0 0M12.223 12.813a.408.408 0 0 0-.407.406c0 .203.164.406.407.406a.408.408 0 0 0 .406-.406.437.437 0 0 0-.406-.406zm0 0M14.254 12.813a.408.408 0 0 0-.406.406c0 .203.164.406.406.406a.408.408 0 0 0 .406-.406.437.437 0 0 0-.406-.406zm0 0"/>
</svg>
